!!!COM: Haydn, Franz Joseph
!!!OTL: String Quartet in B-flat Major
!!!OPS: Opus 76
!!!ONM: No. 4
!!!OMD: Menuetto: Allegro
!!!OMV: 3
!!!SCT: H III:78
!!!SCA: Thematisch-bibliographisches Werkevererzeichnis (A. van Hoboken)
!!!YOR: Trautwein Edition
!!!ENC: Frances Bennion
!!!CDT: 1732/3/31/-1809/5/31/
!!!CNT: Oesterreich
!!!YEC: Copyright (c) 1994, 2000 Center for Computer Assisted Research in the Humanities
!!!YEM: Rights to all derivative editions reserved.
!!!YEM: Refer to licensing agreement for further details.
!!!YEN: United States of America
**kern	**kern	**kern	**kern
*k[b-e-]	*k[b-e-]	*k[b-e-]	*k[b-e-]
*B-:	*B-:	*B-:	*B-:
*clefF4	*clefC3	*clefF	*clefF
*M3/4	*M3/4	*M3/4	*M3/4
2r	2r	2r	2r
4r	4r	4r	8a
.	.	.	8b-
=1	=1	=1	=1
4BB-	4d	4r	8a
.	.	.	8b-
4d	4f	4r	8a
.	.	.	8b-
4r	4r	8B-	8dd
.	.	8d	8b-
=2	=2	=2	=2
4AA	4c	4f	4ff
4c	4e-	4f	4ff
4r	4r	4r	8a
.	.	.	8b-
=3	=3	=3	=3
4GG	4B-	4r	8a
.	.	.	8b-
4B-	4d	4r	8a
.	.	.	8b-
4r	4r	8B-	8dd
.	.	8d	8b-
=4	=4	=4	=4
4FF	4A	4f	4ff
4A	4c	4f	4ff
4r	4r	4r	8a
.	.	.	8b-
=5	=5	=5	=5
4E-	4B-	2.gg	8a
.	.	.	8b-
4E-	4B-	.	8a
.	.	.	8b-
4E-	4B-	.	8gg
.	.	.	8b-
=6	=6	=6	=6
2.D	2.B-	2.ff	8bb-
.	.	.	8b-
.	.	.	8bb-
.	.	.	8b-
.	.	.	8bb-
.	.	.	8b-
=7	=7	=7	=7
4CC 4C	4g	4ee 4b-	8bb-
.	.	.	8gg
4C	4G	4b- 4ee	8ee
.	.	.	8cc
4C	4c	4b- 4ee	8b-
.	.	.	8g
=8	=8	=8	=8
4F	4F	4a 4ff	4f
2r	4r	4r	2r
.	8G#	8B	.
.	8A	8c	.
=9	=9	=9	=9
4r	8G#	8B	4r
.	8A	8c	.
4r	8c	8e-	4r
.	8A	8c	.
4FF	4r	4r	8gg
.	.	.	8ff#
=10	=10	=10	=10
4FF	4r	4r	8gg
.	.	.	8ee-
4FF	4r	4r	8cc
.	.	.	8ee-
4r	8c#	8e	4r
.	8d	8f	.
=11	=11	=11	=11
4r	8c#	8e	4r
.	8d	8f	.
4r	8B-	8b-	4r
.	8d	8f	.
4DD	4r	4r	8bb-
.	.	.	8aa
=12	=12	=12	=12
4DD	4r	4r	8bb-
.	.	.	8ff
4DD	4r	4r	8dd
.	.	.	8ff
4r	4B	4f	8aa-
.	.	.	8gg
=13	=13	=13	=13
2.r	4c	4e-	8gg
.	.	.	8ee-
.	4e-	4g	8cc
.	.	.	8ee-
.	4A	4e-	8gg
.	.	.	8ff
=14	=14	=14	=14
2.r	4B-	4d	8ff
.	.	.	8dd
.	4d	4f	8b-
.	.	.	8dd
.	4G	4B-	8ff
.	.	.	8ee-
=15	=15	=15	=15
2.r	4A	4c	8ee-
.	.	.	8cc
.	4c	4e-	8a
.	.	.	8cc
.	4F#	4A	8ee-
.	.	.	8dd
=16	=16	=16	=16
4r	4G	4B-	8dd
.	.	.	8b-
4r	4B-	4d	8g
.	.	.	8b-
8DD	4G	[4c#	4gg
8EE-	.	.	.
=17	=17	=17	=17
8DD	4b-	4c#]	4gg
8EE-	.	.	.
8DD	4b-	4c#	4gg
8EE-	.	.	.
8GG	4G	4cc#	4gg
8EE-	.	.	.
=18	=18	=18	=18
4DD	4A	4dd	4ff#
4D	2r	2r	4r
4r	.	.	8f#
.	.	.	8g
=19	=19	=19	=19
2.r	4B-	4d	8f#
.	.	.	8g
.	4B-	4d	8f#
.	.	.	8g
.	4r	4r	8b-
.	.	.	8g
=20	=20	=20	=20
2.r	4c	4e-	8g#
.	.	.	8a
.	4c	4e-	8g#
.	.	.	8a
.	4r	4r	8cc
.	.	.	8a
=21	=21	=21	=21
2.r	4d	4f	8cc
.	.	.	8b
.	4d	4f	8cc
.	.	.	8b
.	4e-	4g	8dd
.	.	.	8cc
=22	=22	=22	=22
2.r	4B	[2.g	8ee-
.	.	.	8dd
.	4c	.	8ff
.	.	.	8ee-
.	4d	.	8gg
.	.	.	8ff#
=23	=23	=23	=23
2.r	2e-	2.g]	8gg
.	.	.	8ff
.	.	.	8ee-
.	.	.	8dd
.	4e	.	8cc
.	.	.	8b-
=24	=24	=24	=24
[2.F	4f	2.f	8a
.	.	.	8f
.	4A	.	8e
.	.	.	8f
.	4A	.	8e
.	.	.	8f
=25	=25	=25	=25
2.F_	2.B-	2.e	8r
.	.	.	8g
.	.	.	8f#
.	.	.	8g
.	.	.	8f#
.	.	.	8g
=26	=26	=26	=26
2.F]	2.c	2.e-	8r
.	.	.	8a
.	.	.	8g#
.	.	.	8a
.	.	.	8g#
.	.	.	8a
=27	=27	=27	=27
8AA	2.r	2.r	4r
8BB-	.	.	.
8AA	.	.	4r
8BB-	.	.	.
4r	.	.	8a
.	.	.	8b-
=28	=28	=28	=28
2.r	4r	4r	8a
.	.	.	8b-
.	4r	4r	8a
.	.	.	8b-
.	8c#	8e	8a
.	8d	8f	8b-
=29	=29	=29	=29
4BB-	8c#	8e	8a
.	8d	8f	8b-
4BB-	8c#	8e	8a
.	8d	8f	8b-
4BB-	8f	8B-	8dd
.	8d	8d	8b-
=30	=30	=30	=30
4AA	4c	4f	4ff
4AA	4c	4f	4ff
4r	4r	4r	8a
.	.	.	8b-
=31	=31	=31	=31
4AA-	4d	4B- 4f	8a
.	.	.	8b-
4AA-	4d	4B- 4f	8a
.	.	.	8b-
4AA-	4d	4B- 4f	8dd
.	.	.	8b-
=32	=32	=32	=32
4GG	4e-	4e- 4B-	4gg
4GG	4e-	4B- 4e-	4gg
4r	4r	4r	8b
.	.	.	8cc
=33	=33	=33	=33
4E-	4A 4f	4f	8b
.	.	.	8cc
4E-	4f 4A	4a	8b
.	.	.	8cc
4E-	4A 4f	8cc	8aa
.	.	8a	8cc
=34	=34	=34	=34
2.D	2.B- 2.f	2.ff	8bb-
.	.	.	8b-
.	.	.	8bb-
.	.	.	8b-
.	.	.	8bb-
.	.	.	8b-
=35	=35	=35	=35
4E-	4e-	4gg	8bb-
.	.	.	8gg
4E-	4g	8gg	8ee-
.	.	8ee-	8cc
4F	8f	8cc	8a
.	8e-	8a	8f
=36	=36	=36	=36
8B-	4d	4b-	4b-
8F	.	.	.
8D	2r	2r	2r
8BB-	.	.	.
8AA	.	.	.
8BB-	.	.	.
=37	=37	=37	=37
8AA	4r	4r	4r
8BB-	.	.	.
8AA	4r	4r	4r
8BB-	.	.	.
8E-	4e- 4B-	4gg 4b-	4gg 4b-
8BB-	.	.	.
=38	=38	=38	=38
8D	4B- 4d	4ff 4b-	4ff 4b-
8BB-	.	.	.
8D	4d 4B-	4ff 4b-	4ff 4b-
8BB-	.	.	.
8AA	8C#	4r	4r
8BB-	8D	.	.
=39	=39	=39	=39
8AA	8C#	4r	4r
8BB-	8D	.	.
8AA	8C#	4r	4r
8BB-	8D	.	.
8E-	8E-	8g	4gg 4b-
8BB-	8G	8e-	.
=40	=40	=40	=40
8D	4B-	4d	4ff 4b-
8BB-	.	.	.
8D	4B-	4b-	4b- 4ff
8BB-	.	.	.
4r	4r	4r	8aa
.	.	.	8bb-
=41	=41	=41	=41
4D	4f	4b-	8aa
.	.	.	8bb-
2r	2r	2r	8aa
.	.	.	8bb-
.	.	.	8ff
.	.	.	8dd
=42	=42	=42	=42
4E-	4g	4b-	8ff#
.	.	.	8gg
2r	2r	2r	8ff#
.	.	.	8gg
.	.	.	8ee-
.	.	.	8cc
=43	=43	=43	=43
4F	4e-	4a	8b
.	.	.	8cc
2r	2r	2r	8b
.	.	.	8cc
.	.	.	8ee-
.	.	.	8a
=44	=44	=44	=44
4B-	4d	4b-	4b-
4F	2r	2r	4dd
4D	.	.	4ff
=45	=45	=45	=45
4BB-	2.r	2.r	4bb-
4FF	.	.	4ddd
4DD	.	.	4fff
=46	=46	=46	=46
4EE-	4e-	4g	8b
.	.	.	8cc
4r	4r	4r	8b
.	.	.	8cc
4FF	4c	4a	8ee-
.	.	.	8a
=47	=47	=47	=47
4B-	4d	4b-	4b-
4F	2r	2r	4dd
4D	.	.	4ff
=48	=48	=48	=48
4BB-	2.f	2.a-	4bb-
4FF	.	.	4ddd
4DD	.	.	4fff
=49	=49	=49	=49
4EE-	4e-	4g	8b
.	.	.	8cc
4r	4r	4r	8b
.	.	.	8cc
4FF	4c	4e- 4a	8ee-
.	.	.	8a
=50	=50	=50	=50
4BB-	4d	4b- 4d	4b-
2r	2r	2r	2r
=51	=51	=51	=51
[2.BB-	[2.B-	4d 4b-	4b-
.	.	2r	2r
=52	=52	=52	=52
2.BB-_	2.B-_	4r	4r
.	.	4r	4r
.	.	[4f	[4ff
=53	=53	=53	=53
2.BB-_	2.B-_	4f]	4ff]
.	.	4g	4gg
.	.	4f	4ff
=54	=54	=54	=54
2.BB-_	2.B-_	4e	4ee
.	.	4f	4ff
.	.	8e-	8ee-
.	.	8d	8dd
=55	=55	=55	=55
2.BB-_	2.B-_	4c	4cc
.	.	4e-	4ee-
.	.	8d	8dd
.	.	8c	8cc
=56	=56	=56	=56
2.BB-_	2.B-_	[2.B-	[2.b-
=57	=57	=57	=57
2BB-]	2B-]	2B-]	2b-]
4AA-	4A-	4a-	4a-
=58	=58	=58	=58
4GG-	4G-	4g-	4g-
4FF	4F	4f	4f
4EE-	4E-	4e-	4e-
=59	=59	=59	=59
[2.FF	[2.F	[2.f	[2.f
=60	=60	=60	=60
2.FF]	2.F]	2f]	2f]
.	.	[4f	[4ff
=61	=61	=61	=61
[2.BB-	[2.B-	4f]	4ff]
.	.	4g	4gg
.	.	4f	4ff
=62	=62	=62	=62
2.BB-_	2.B-_	4e	4ee
.	.	4f	4ff
.	.	8e-	8ee-
.	.	8d	8dd
=63	=63	=63	=63
2.BB-_	2.B-_	4c	4cc
.	.	4e-	4ee-
.	.	8d	8dd
.	.	8c	8cc
=64	=64	=64	=64
2.BB-_	2.B-_	[2.B-	[2.b-
=65	=65	=65	=65
2BB-]	2B-]	2B-]	2b-]
4AA-	4A-	4a-	4a-
=66	=66	=66	=66
4GG-	4G-	4g-	4g-
4FF	4F	4f	4f
4EE-	4E-	4e-	4e-
=67	=67	=67	=67
[2.FF	[2.F	[2.f	[2.f
=68	=68	=68	=68
2FF]	2F]	2f]	2f]
4r	4r	[4c	[4cc
=69	=69	=69	=69
[2.F	[2.A	4c]	4cc]
.	.	4d	4dd
.	.	4c	4cc
=70	=70	=70	=70
4F]	4A]	[2.f	[2.ff
4G	4B-	.	.
4F	4A	.	.
=71	=71	=71	=71
[2.B-	[2.d	4f]	4ff]
.	.	4g	4gg
.	.	4f	4ff
=72	=72	=72	=72
4B-]	4d]	[2.b-	[2.bb-
4c	4e-	.	.
4B-	4d	.	.
=73	=73	=73	=73
[2.e-	2.g	4b-]	4bb-]
.	.	4cc	4ccc
.	.	4b-	4bb-
=74	=74	=74	=74
4e-]	4g-	4a	4aa
4d	4f	4b-	4bb-
4r	4r	4r	8aa
.	.	.	8gg
=75	=75	=75	=75
2.r	4cc	4ee-	4ff#
.	4b-	4dd	4gg
.	4r	4r	8ff
.	.	.	8ee-
=76	=76	=76	=76
2.r	4f	4a-	4dd
.	4e-	4g	4ee-
.	4r	4r	8dd
.	.	.	8cc
=77	=77	=77	=77
2.r	8d	8f	8b
.	8e-	8g	8cc
.	8c	8e-	8ee-
.	8d	8f	8dd
.	8e-	8g	8cc
.	8e	8g	8b-
=78	=78	=78	=78
2.r	4f	4f	8a
.	.	.	8g
.	2r	2r	8f
.	.	.	8e-
.	.	.	8d
.	.	.	8c
=79	=79	=79	=79
[2.BB-	[2.B-	[2.B-	[2.B-
=80	=80	=80	=80
2.BB-]	2B-]	2B-]	2B-]
.	[4D	[4f	[4ff
=81	=81	=81	=81
[2.BB-	4D]	4f]	4ff]
.	4E-	4g	4gg
.	4D	4f	4ff
=82	=82	=82	=82
2.BB-_	4C#	4e	4ee
.	4D	4f	4ff
.	8C	8e-	8ee-
.	8D	8d	8dd
=83	=83	=83	=83
2.BB-_	8E-	4c	4cc
.	8D	.	.
.	8E-	4e-	4ee-
.	8F	.	.
.	8G	8d	8dd
.	8A	8c	8cc
=84	=84	=84	=84
2.BB-_	[2.B-	[2.B-	[2.b-
=85	=85	=85	=85
2BB-]	2B-]	2B-]	2b-]
4AA-	4A-	4a-	4a-
=86	=86	=86	=86
4GG-	4G-	4g-	4g-
4FF	4F	4f	4f
4EE-	4E-	4e-	4e-
=87	=87	=87	=87
[2.FF	[2.F	[2.f	[2.f
=88	=88	=88	=88
2FF]	2F]	2f]	2f]
4r	[4d	[4f	[4ff
=89	=89	=89	=89
[2.BB-	4d]	4f]	4ff]
.	4e-	4g	4gg
.	4d	4f	4ff
=90	=90	=90	=90
2.BB-]	4c#	4e	4ee
.	4d	4f	4ff
.	[4f	[4dd	[4bb-
=91	=91	=91	=91
[2.B-	4f]	4dd]	4bb-]
.	4g-	4ee-	4ccc
.	4f	4dd	4bb-
=92	=92	=92	=92
2B-]	4g-	4cc 4e-	4aa
.	4f	4d 4b-	4bb-
4r	4r	8ee-	8ccc
.	.	8dd	8bb-
=93	=93	=93	=93
2B-	4g-	4e- 4cc	4aa
.	4f	4b- 4d	4bb-
4r	4r	8ee-	8ccc
.	.	8dd	8bb-
=94	=94	=94	=94
2B-	4g-	4e- 4cc	4aa
.	4f	4d 4b-	4bb-
4r	4r	8ee-	8ccc
.	.	8dd	8bb-
=95	=95	=95	=95
2B-	4g-	4e- 4cc	4aa
.	4f	4d 4b-	4bb-
4r	8e-	8cc	8ccc
.	8d	8b-	8ddd
=96	=96	=96	=96
[2.FF	4c	[2.a [2.e-	4eee-
.	4A	.	4ccc
.	4F	.	4aa
=97	=97	=97	=97
2.FF_	[2.A [2.F	2.a_ 2.e-_	4ff
.	.	.	4ee-
.	.	.	12cc
.	.	.	12a
.	.	.	12f
=98	=98	=98	=98
2FF]	2A] 2F]	2a] 2e-]	2e- 2c
4r	[4F	[4d	4r
=99	=99	=99	=99
[2.BB-	4F]	4d]	2.r
.	4G	4e-	.
.	4F	4d	.
=100	=100	=100	=100
2BB-]	4E	4c#	4r
.	4F	4d	4r
4r	[4d	4r	[4ff
=101	=101	=101	=101
2.r	4d]	[2.b-	4ff]
.	4e-	.	4gg
.	4d	.	4ff
=102	=102	=102	=102
2.r	4c#	2b-]	4ee
.	4d	.	4ff
.	4r	4r	4r
=103	=103	=103	=103
4F	4c	4e-	4bb-
2r	2r	2r	4aa
.	.	.	4r
=104	=104	=104	=104
4B-	4B-	4d	4ccc
2r	2r	2r	4bb-
.	.	.	4r
=105	=105	=105	=105
4FF	4A	4e- 4c	4g
2r	2r	2r	4f
.	.	.	4r
=106	=106	=106	=106
4BB-	4F	4A	4e-
2r	2r	4B-	4d
.	.	4r	4r
==	==	==	==
*-	*-	*-	*-
!!!RWG1: This file contains only pitch and duration data.
!!!RWG2: Transposing instruments are not transposed.
!!!RWG3: Spines may have incompatible meters.
!!!RWG4: Durations of rests and tied notes may be interpreted.
!!!RWG: Key is interpreted using the Humdrum key tool.
!!!GTL: 6 Quartetti ("Erdödy")
!!!OPT: Sunrise
!!!AFT: stage1
!!!END: 1997/04/15
!!!KEY: 2708953752
!!!EMD: Converted from MuseData to Humdrum Dec 16, 2000, by Andreas Kornstaedt using muse2kern.
!!!EMD: Manual editing by Craig Sapp, Nov 2001
